svg/u1f9eb.svg

<svg viewBox="0 0 128 128" xmlns="http://www.w3.org/2000/svg">
  <g>
    <path d="M124,71.52c0-4.32-5.33-6.83-18.4-8.68c-10.53-1.48-25.32-2.3-41.66-2.3 c-17.48,0-32.19,0.8-42.52,2.3C9.05,64.65,4,67.17,4,71.52c0,0.13,0.01,37.69,0.01,37.69c0,7.33,26.83,14.29,59.92,14.29 c33.1,0,59.92-6.96,59.92-14.29C123.86,109.21,124,71.92,124,71.52z" opacity="0.6" fill="#4FC3F7"/>
    <g opacity="0.7">
      <path d="M63.94,63.77c34.1,0,56.84,3.47,56.84,7.75s-25.97,7.75-56.84,7.75S7.22,75.8,7.22,71.52 S27.42,63.77,63.94,63.77 M63.94,60.54c-17.48,0-32.19,0.8-42.52,2.3C9.05,64.65,4,67.17,4,71.52c0,3.61,3.33,6.47,19.57,8.68 c10.91,1.48,25.25,2.3,40.36,2.3c15.13,0,29.48-0.82,40.42-2.3c16.3-2.21,19.64-5.07,19.64-8.68c0-4.32-5.33-6.83-18.4-8.68 C95.07,61.36,80.28,60.54,63.94,60.54L63.94,60.54z" fill="#FFFFFF"/>
    </g>
    <g>
      <linearGradient id="SVGID_1_" gradientUnits="userSpaceOnUse" x1="58.4366" x2="148.6412" y1="109.9976" y2="109.9976">
        <stop offset="0" stop-color="#C62828"/>
        <stop offset="1" stop-color="#B02424"/>
      </linearGradient>
      <path d="M121.11,100.47l0,6.39c0,6.99-25.6,12.66-57.17,12.66s-57.17-5.67-57.17-12.66l0-6.39 H121.11z" fill="url(#SVGID_1_)"/>
    </g>
    <ellipse cx="63.94" cy="100.11" rx="57.17" ry="9.32" fill="#FF5252"/>
    <path d="M42.5,98.72c-0.27-2.11-5.51-4.82-11.97-4.82c-5.03,0-9.33,1.65-11.11,3.37c0,0-3.47,0.54-5.4,1.07 c-1.21,0.33-1.59,1.39-0.35,1.87c1.66,0.64,3.21,0.17,5,0.99c0.8,0.37,1.07,1.63,4.98,1.97c1.06,0.09,2.13,0.12,3.19,0.14 c1.25,0.03,2.53,0.05,3.75,0.37c0.48,0.13,2.63,0.96,4.26,0.7c3.04-0.5,3.05-1.16,3.76-1.51c0.68-0.33,2.18-0.72,2.93-0.76 c1.29-0.07,5.49-0.99,5.49-1.97C47.02,99.27,44.98,99.45,42.5,98.72z" fill="#E8F5E9"/>
    <path d="M79.45,91.46c-1.47-1.39-4.94-2.71-9-2.71c-3.74,0-6.98,1.12-8.62,2.38c-2.45,0.5-4,1.22-4,2.03 c0,1.51,5.43,2.74,12.13,2.74s12.13-1.22,12.13-2.74C82.08,92.51,81.09,91.92,79.45,91.46z" fill="#E8F5E9"/>
    <radialGradient id="SVGID_2_" cx="70.4715" cy="92.7164" gradientTransform="matrix(1 0 0 0.3944 0 53.4202)" gradientUnits="userSpaceOnUse" r="11.7548">
      <stop offset="0.5593" stop-color="#00BFA5"/>
      <stop offset="1" stop-color="#00BFA5" stop-opacity="0"/>
    </radialGradient>
    <path d="M80.19,92.8c0,1.73-4.36,2.22-9.75,2.22s-9.75-0.49-9.75-2.22s4.36-4.05,9.75-4.05 S80.19,91.07,80.19,92.8z" fill="url(#SVGID_2_)"/>
    <radialGradient id="SVGID_3_" cx="30.571" cy="100.457" gradientTransform="matrix(1 0 0 0.3944 0 55.8122)" gradientUnits="userSpaceOnUse" r="14.4611">
      <stop offset="0.5551" stop-color="#00BFA5"/>
      <stop offset="1" stop-color="#00BFA5" stop-opacity="0"/>
    </radialGradient>
    <path d="M42.53,98.89c0,2.13-5.37,2.73-11.99,2.73s-11.99-0.6-11.99-2.73s5.37-4.99,11.99-4.99 S42.53,96.76,42.53,98.89z" fill="url(#SVGID_3_)"/>
    <path d="M111.34,98.68c-0.2,0.16-0.45,0.29-0.58,0.46c-0.14,0.18-0.14,0.38-0.2,0.58 c-0.28,0.96-2.02,1.64-3.78,1.97c-1.76,0.33-3.67,0.44-5.38,0.85c-1.82,0.44-3.4,1.21-5.38,1.33c-1.9,0.12-3.75-0.33-5.66-0.32 c-1.95,0.01-3.91-0.14-5.88-0.15c-2.09-0.01-3.17,0.49-6.36,0.04c-1.47-0.21-2.29-1.65-3.8-1.97c-1.25-0.26-3.69-0.58-4.37-1.72 c-0.65-1.09,0.22-1.96,2.34-2.89c1.28-0.56,2.83-1.17,4.45-1.55c4.46-1.05,9.53-1.4,14.38-1.4c4.56,0,9.26,0.32,13.51,1.21 c2.07,0.43,8.53,2.01,6.76,3.53C111.37,98.65,111.35,98.66,111.34,98.68z" fill="#F3E5F5"/>
    <radialGradient id="SVGID_4_" cx="92.6218" cy="95.9681" gradientTransform="matrix(0.9185 0 0 0.3707 5.5905 57.7962)" gradientUnits="userSpaceOnUse" r="20.8346">
      <stop offset="0.6323" stop-color="#EA80FC"/>
      <stop offset="1" stop-color="#EA80FC" stop-opacity="0"/>
    </radialGradient>
    <path d="M105.85,97.33c0,2.77-6.82,5.01-15.23,5.01s-15.23-2.24-15.23-5.01s6.82-6.18,15.23-6.18 S105.85,94.57,105.85,97.33z" fill="url(#SVGID_4_)"/>
    <path d="M11.99,76.29 c0,0,5.61,1.91,17.82,3.1" fill="none" stroke="#FFFFFF" stroke-width="3.067" stroke-linecap="round" stroke-miterlimit="10"/>
    <ellipse cx="48.4" cy="95.02" rx="4.28" ry="1.37" fill="#FFEBEE"/>
    <ellipse cx="51.17" cy="104.64" rx="3.66" ry="1.17" fill="#FFEBEE"/>
    <ellipse cx="60.69" cy="101.3" rx="6.65" ry="2.13" fill="#FFEBEE"/>
    <g opacity="0.46">
      <path d="M31.62,121.11c-13.72-2.13-19.26-4.87-19.26-4.87V78.15c0,0,8.79,2.09,19.26,2.94V121.11z" fill="#FFFFFF"/>
    </g>
  </g>
</svg>

<svg viewBox="0 0 128 128" xmlns="http://www.w3.org/2000/svg">
  <defs>
    <radialGradient id="SVGID_2_" cx="70.4715" cy="228.163155" gradientTransform="matrix(1 0 0 0.3944 0 0)" gradientUnits="userSpaceOnUse" r="11.7548">
      <stop offset="0.5593" stop-color="#00BFA5"/>
      <stop offset="1" stop-color="#00BFA5" stop-opacity="0"/>
    </radialGradient>
    <radialGradient id="SVGID_3_" cx="30.571" cy="241.968663" gradientTransform="matrix(1 0 0 0.3944 0 0)" gradientUnits="userSpaceOnUse" r="14.4611">
      <stop offset="0.5551" stop-color="#00BFA5"/>
      <stop offset="1" stop-color="#00BFA5" stop-opacity="0"/>
    </radialGradient>
    <radialGradient id="SVGID_4_" cx="98.708354" cy="251.879079" gradientTransform="matrix(0.9185 0 0 0.3707 0 0)" gradientUnits="userSpaceOnUse" r="20.8346">
      <stop offset="0.6323" stop-color="#EA80FC"/>
      <stop offset="1" stop-color="#EA80FC" stop-opacity="0"/>
    </radialGradient>
    <linearGradient id="SVGID_1_" gradientUnits="userSpaceOnUse" x1="58.4366" x2="148.6412" y1="109.9976" y2="109.9976">
      <stop offset="0" stop-color="#C62828"/>
      <stop offset="1" stop-color="#B02424"/>
    </linearGradient>
  </defs>
  <path d="M124,71.52 C124,67.2 118.67,64.69 105.6,62.84 C95.07,61.36 80.28,60.54 63.94,60.54 C46.46,60.54 31.75,61.34 21.42,62.84 C9.05,64.65 4,67.17 4,71.52 C4,71.65 4.01,109.21 4.01,109.21 C4.01,116.54 30.84,123.5 63.93,123.5 C97.03,123.5 123.85,116.54 123.85,109.21 C123.86,109.21 124,71.92 124,71.52 Z" fill="#4FC3F7" opacity="0.6"/>
  <path d="M63.94,63.77 C98.04,63.77 120.78,67.24 120.78,71.52 C120.78,75.8 94.81,79.27 63.94,79.27 C33.07,79.27 7.22,75.8 7.22,71.52 C7.22,67.24 27.42,63.77 63.94,63.77 M63.94,60.54 C46.46,60.54 31.75,61.34 21.42,62.84 C9.05,64.65 4,67.17 4,71.52 C4,75.13 7.33,77.99 23.57,80.2 C34.48,81.68 48.82,82.5 63.93,82.5 C79.06,82.5 93.41,81.68 104.35,80.2 C120.65,77.99 123.99,75.13 123.99,71.52 C123.99,67.2 118.66,64.69 105.59,62.84 C95.07,61.36 80.28,60.54 63.94,60.54 L63.94,60.54 Z" fill="#FFFFFF" opacity="0.7"/>
  <path d="M121.11,100.47 L121.11,106.86 C121.11,113.85 95.51,119.52 63.94,119.52 C32.37,119.52 6.77,113.85 6.77,106.86 L6.77,100.47 L121.11,100.47 Z" fill="url(#SVGID_1_)"/>
  <path d="M121.11,100.11 A57.17 9.32 0 1 1 6.77,100.11 A57.17 9.32 0 1 1 121.11,100.11 Z" fill="#FF5252"/>
  <path d="M42.5,98.72 C42.23,96.61 36.99,93.9 30.53,93.9 C25.5,93.9 21.2,95.55 19.42,97.27 C19.42,97.27 15.95,97.81 14.02,98.34 C12.81,98.67 12.43,99.73 13.67,100.21 C15.33,100.85 16.88,100.38 18.67,101.2 C19.47,101.57 19.74,102.83 23.65,103.17 C24.71,103.26 25.78,103.29 26.84,103.31 C28.09,103.34 29.37,103.36 30.59,103.68 C31.07,103.81 33.22,104.64 34.85,104.38 C37.89,103.88 37.9,103.22 38.61,102.87 C39.29,102.54 40.79,102.15 41.54,102.11 C42.83,102.04 47.03,101.12 47.03,100.14 C47.02,99.27 44.98,99.45 42.5,98.72 Z" fill="#E8F5E9"/>
  <path d="M79.45,91.46 C77.98,90.07 74.51,88.75 70.45,88.75 C66.71,88.75 63.47,89.87 61.83,91.13 C59.38,91.63 57.83,92.35 57.83,93.16 C57.83,94.67 63.26,95.9 69.96,95.9 C76.66,95.9 82.09,94.68 82.09,93.16 C82.08,92.51 81.09,91.92 79.45,91.46 Z" fill="#E8F5E9"/>
  <path d="M80.19,92.8 C80.19,94.53 75.83,95.02 70.44,95.02 C65.05,95.02 60.69,94.53 60.69,92.8 C60.69,91.07 65.05,88.75 70.44,88.75 C75.83,88.75 80.19,91.07 80.19,92.8 Z" fill="url(#SVGID_2_)"/>
  <path d="M42.53,98.89 C42.53,101.02 37.16,101.62 30.54,101.62 C23.92,101.62 18.55,101.02 18.55,98.89 C18.55,96.76 23.92,93.9 30.54,93.9 C37.16,93.9 42.53,96.76 42.53,98.89 Z" fill="url(#SVGID_3_)"/>
  <path d="M111.34,98.68 C111.14,98.84 110.89,98.97 110.76,99.14 C110.62,99.32 110.62,99.52 110.56,99.72 C110.28,100.68 108.54,101.36 106.78,101.69 C105.02,102.02 103.11,102.13 101.4,102.54 C99.58,102.98 98,103.75 96.02,103.87 C94.12,103.99 92.27,103.54 90.36,103.55 C88.41,103.56 86.45,103.41 84.48,103.4 C82.39,103.39 81.31,103.89 78.12,103.44 C76.65,103.23 75.83,101.79 74.32,101.47 C73.07,101.21 70.63,100.89 69.95,99.75 C69.3,98.66 70.17,97.79 72.29,96.86 C73.57,96.3 75.12,95.69 76.74,95.31 C81.2,94.26 86.27,93.91 91.12,93.91 C95.68,93.91 100.38,94.23 104.63,95.12 C106.7,95.55 113.16,97.13 111.39,98.65 C111.37,98.65 111.35,98.66 111.34,98.68 Z" fill="#F3E5F5"/>
  <path d="M105.85,97.33 C105.85,100.1 99.03,102.34 90.62,102.34 C82.21,102.34 75.39,100.1 75.39,97.33 C75.39,94.56 82.21,91.15 90.62,91.15 C99.03,91.15 105.85,94.57 105.85,97.33 Z" fill="url(#SVGID_4_)"/>
  <path d="M12.484,74.838 Q17.926,76.691 29.959,77.864 Q30.722,77.938 31.066,78.357 Q31.411,78.776 31.336,79.539 Q31.188,81.065 29.661,80.916 Q17.274,79.709 11.496,77.742 Q10.77,77.495 10.531,77.008 Q10.291,76.522 10.538,75.796 Q11.033,74.344 12.484,74.838 Z" fill="#FFFFFF"/>
  <path d="M52.68,95.02 A4.28 1.37 0 1 1 44.12,95.02 A4.28 1.37 0 1 1 52.68,95.02 Z" fill="#FFEBEE"/>
  <path d="M54.83,104.64 A3.66 1.17 0 1 1 47.51,104.64 A3.66 1.17 0 1 1 54.83,104.64 Z" fill="#FFEBEE"/>
  <path d="M67.34,101.3 A6.65 2.13 0 1 1 54.04,101.3 A6.65 2.13 0 1 1 67.34,101.3 Z" fill="#FFEBEE"/>
  <path d="M31.62,121.11 C17.9,118.98 12.36,116.24 12.36,116.24 L12.36,78.15 C12.36,78.15 21.15,80.24 31.62,81.09 L31.62,121.11 Z" fill="#FFFFFF" opacity="0.46"/>
</svg>
